assets/images/superAdminIcon.svg

<svg width="24" height="16" viewBox="0 0 24 16" fill="none" xmlns="http://www.w3.org/2000/svg">
<path d="M19.8 13.7601H4.2C3.87 13.7601 3.6 13.9761 3.6 14.2401V15.2001C3.6 15.4641 3.87 15.6801 4.2 15.6801H19.8C20.13 15.6801 20.4 15.4641 20.4 15.2001V14.2401C20.4 13.9761 20.13 13.7601 19.8 13.7601ZM22.2 4.16007C21.2063 4.16007 20.4 4.80507 20.4 5.60007C20.4 5.81307 20.46 6.01107 20.565 6.19407L17.85 7.49607C17.2725 7.77207 16.5263 7.61607 16.1925 7.14807L13.1363 2.87007C13.5375 2.60607 13.8 2.21007 13.8 1.76007C13.8 0.965068 12.9938 0.320068 12 0.320068C11.0063 0.320068 10.2 0.965068 10.2 1.76007C10.2 2.21007 10.4625 2.60607 10.8638 2.87007L7.8075 7.14807C7.47375 7.61607 6.72375 7.77207 6.15 7.49607L3.43875 6.19407C3.54 6.01407 3.60375 5.81307 3.60375 5.60007C3.60375 4.80507 2.7975 4.16007 1.80375 4.16007C0.810001 4.16007 0 4.80507 0 5.60007C0 6.39507 0.80625 7.04007 1.8 7.04007C1.8975 7.04007 1.995 7.02807 2.08875 7.01607L4.8 12.8001H19.2L21.9113 7.01607C22.005 7.02807 22.1025 7.04007 22.2 7.04007C23.1938 7.04007 24 6.39507 24 5.60007C24 4.80507 23.1938 4.16007 22.2 4.16007Z" fill="#9D2235"/>
</svg>

<svg xmlns="http://www.w3.org/2000/svg" width="24" height="16" fill="none"><path fill="#9D2235" d="M19.8 13.76H4.2c-.33 0-.6.216-.6.48v.96c0 .264.27.48.6.48h15.6c.33 0 .6-.216.6-.48v-.96c0-.264-.27-.48-.6-.48m2.4-9.6c-.994 0-1.8.645-1.8 1.44 0 .213.06.411.165.594L17.85 7.496c-.578.276-1.324.12-1.658-.348L13.136 2.87c.402-.264.664-.66.664-1.11 0-.795-.806-1.44-1.8-1.44s-1.8.645-1.8 1.44c0 .45.263.846.664 1.11L7.807 7.148c-.333.468-1.083.624-1.657.348L3.439 6.194a1.2 1.2 0 0 0 .165-.594c0-.795-.807-1.44-1.8-1.44C.81 4.16 0 4.805 0 5.6s.806 1.44 1.8 1.44c.097 0 .195-.012.289-.024L4.8 12.8h14.4l2.711-5.784c.094.012.191.024.289.024.994 0 1.8-.645 1.8-1.44s-.806-1.44-1.8-1.44"/></svg>
